X:1
T:Title
%%score 1 2
L:1/8
Q:1/4=80
M:3/4
K:G
V:1 treble nm="Strings 1, Soprano"
V:2 bass nm="Strings 1, Bass"
V:1
 z2 z [GB] [GB][DG] | [DG]3 D [CE][EG] | [CE] [B,D]2 [B,D] [DG][DG] | [DA]4 [DA]2 | %4
w: 1.~The~ grace~ of~|God~ that~ brings~ sal|va tion~ And~ teach es~|right eous|
 [DB]3 [GB] [GB][DG] | [DG]3 D [CE][EG] | [CE] [B,D]2 [DB] [DB][EG] | [FA]4 [FB]2 | G4 [Gd][Gd] | %9
w: ness,~ Ap pear eth~|un to~ eve ry~|na tion,~ Their~ dark ened~|souls~ to~|bless.~ * *|
 [Fd]3 [FA] [GB][Ac] | [Ac] [GB]3 [Gd][Gd] | [Fd]3 [FA] [GB][Ac] | [GB]4 [GB][DG] | %13
w: ||||
 [DG]3 D [CE][CG] | [CE] [B,D]3 [DB]G | [FA]3 [DG] [GB][FA] | [DG]4 z2 |] %17
w: ||||
V:2
 z2 z [G,D] [G,D][G,B,] | [G,,G,B,]3 [B,,G,] [C,G,][C,G,] | %2
 [G,,G,] [G,,G,]2 [G,,G,] [G,,G,][B,,G,] | [D,F,]4 [D,F,]2 | G,3 [G,D] [G,D][G,B,] | %5
 [G,,G,B,]3 [B,,G,] [C,G,][C,E,] | [G,,G,] [G,,G,]2 G, G,[E,B,] | [D,C]4 [D,D]2 | %8
 [G,,G,B,]4 [G,B,][G,B,] | [D,A,]3 [D,D] [D,D][D,D] | [G,D] [G,D]3 [G,B,][G,B,] | %11
 [D,A,]3 [D,D] [D,D][D,D] | [G,D]4 [G,D][G,B,] | [G,,G,B,]3 [B,,G,] [C,G,][C,E,] | %14
 [G,,G,] [G,,G,]3 G,[E,B,] | [D,C]3 [D,B,] [D,D][D,C] | [G,,G,B,]4 z2 |] %17

